core/img/actions/mastodon.svg

<?xml version="1.0" encoding="UTF-8" standalone="no"?>
<svg
   fill="#000000"
   viewBox="0 0 32 32"
   width="32px"
   height="32px"
   version="1.1"
   id="svg4"
   sodipodi:docname="mastodon.svg"
   inkscape:version="1.2.1 (9c6d41e410, 2022-07-14)"
   xmlns:inkscape="http://www.inkscape.org/namespaces/inkscape"
   xmlns:sodipodi="http://sodipodi.sourceforge.net/DTD/sodipodi-0.dtd"
   xmlns="http://www.w3.org/2000/svg"
   xmlns:svg="http://www.w3.org/2000/svg">
  <defs
     id="defs8" />
  <sodipodi:namedview
     id="namedview6"
     pagecolor="#ffffff"
     bordercolor="#000000"
     borderopacity="0.25"
     inkscape:showpageshadow="2"
     inkscape:pageopacity="0.0"
     inkscape:pagecheckerboard="0"
     inkscape:deskcolor="#d1d1d1"
     showgrid="false"
     inkscape:zoom="27.21875"
     inkscape:cx="23.990815"
     inkscape:cy="11.646383"
     inkscape:window-width="1920"
     inkscape:window-height="1007"
     inkscape:window-x="0"
     inkscape:window-y="0"
     inkscape:window-maximized="1"
     inkscape:current-layer="svg4" />
  <path
     d="M 16.092108,4.0424002e-4 C 12.062352,0.01674741 8.0611741,0.52836757 5.9792557,1.4882781 c 0,0 -4.4792557,2.0390593 -4.4792557,8.9845679 0,8.267636 -0.006,18.650381 7.4211287,20.658254 2.8443783,0.76446 5.2904523,0.928996 7.2569683,0.815594 3.568811,-0.201455 5.333936,-1.295049 5.333936,-1.295049 l -0.119865,-2.637001 c 0,0 -2.313201,0.815177 -5.177591,0.721787 -2.837706,-0.100064 -5.827232,-0.31302 -6.2928463,-3.856484 -0.042694,-0.329532 -0.063873,-0.663192 -0.062538,-0.995391 6.0129483,1.492897 11.1403013,0.650223 12.5518183,0.479455 3.941035,-0.478955 7.371787,-2.95017 7.809382,-5.208861 0.685746,-3.559473 0.627983,-8.682304 0.627983,-8.682304 0,-6.9455086 -4.47144,-8.9845679 -4.47144,-8.9845679 C 24.181616,0.4629949 20.121863,-0.01593892 16.092108,4.0424002e-4 Z M 11.779618,5.2978601 c 1.380664,0.037022 2.744984,0.6547271 3.585489,1.9595116 l 0.81299,1.3810381 0.810383,-1.3810381 c 1.687681,-2.6242446 5.470248,-2.4605003 7.269996,-0.429946 1.659664,1.9318288 1.289838,3.1786613 1.289838,11.8091823 v 0.0025 H 22.28333 v -7.509723 c 0,-3.5154475 -4.481861,-3.6512167 -4.481861,0.487271 v 4.351575 H 14.55733 V 11.6167 c 0,-4.1384877 -4.479254,-4.0053242 -4.479254,-0.489878 v 7.509724 H 6.8052731 c 0,-8.6371452 -0.3631558,-9.8919821 1.2898381,-11.8091356 C 9.0016558,5.8054625 10.398956,5.2608226 11.779618,5.2978448 Z"
     id="path2"
     style="stroke-width:1.33413" />
</svg>

<svg width="32px" height="32px" fill="#000000" version="1.1" viewBox="0 0 32 32" xmlns="http://www.w3.org/2000/svg"><path d="m16.092 4.0424e-4c-4.0298 0.016343-8.0309 0.52796-10.113 1.4879 0 0-4.4793 2.0391-4.4793 8.9846 0 8.2676-6e-3 18.65 7.4211 20.658 2.8444 0.76446 5.2905 0.929 7.257 0.81559 3.5688-0.20146 5.3339-1.295 5.3339-1.295l-0.11986-2.637s-2.3132 0.81518-5.1776 0.72179c-2.8377-0.10006-5.8272-0.31302-6.2928-3.8565-0.042694-0.32953-0.063873-0.66319-0.062538-0.99539 6.0129 1.4929 11.14 0.65022 12.552 0.47946 3.941-0.47896 7.3718-2.9502 7.8094-5.2089 0.68575-3.5595 0.62798-8.6823 0.62798-8.6823 0-6.9455-4.4714-8.9846-4.4714-8.9846-2.1953-1.0253-6.2551-1.5042-10.285-1.4879zm-4.3125 5.2975c1.3807 0.037022 2.745 0.65473 3.5855 1.9595l0.81299 1.381 0.81038-1.381c1.6877-2.6242 5.4702-2.4605 7.27-0.42995 1.6597 1.9318 1.2898 3.1787 1.2898 11.809v0.0025h-3.265v-7.5097c0-3.5154-4.4819-3.6512-4.4819 0.48727v4.3516h-3.2441v-4.3515c0-4.1385-4.4793-4.0053-4.4793-0.48988v7.5097h-3.2728c0-8.6371-0.36316-9.892 1.2898-11.809 0.90654-1.0219 2.3038-1.5666 3.6845-1.5296z" stroke-width="1.3341"/></svg>
